src/icons/details.svg

<svg class="icon" fill="none" viewBox="0 0 48 48" xmlns="http://www.w3.org/2000/svg">
    <rect width="48" height="48" fill="#fff"/>
    <rect x="4" y="10" width="40" height="27" rx="5" fill="#F4F5F7"/>
    <mask id="b" x="4" y="10" width="40" height="27" mask-type="alpha" maskUnits="userSpaceOnUse">
        <rect x="4" y="10" width="40" height="27" rx="4" fill="#F4F5F7"/>
    </mask>
    <g mask="url(#b)">
        <path d="M44 37V10L4 37H44Z" fill="url(#a)"/>
    </g>
    <path d="m21 23c0-0.5523 0.4477-1 1-1h9c0.5522 0 1 0.4477 1 1s-0.4478 1-1 1h-9c-0.5523 0-1-0.4477-1-1z" fill="#19194B"/>
    <path d="m33 23c0-0.5523 0.4477-1 1-1h5c0.5523 0 1 0.4477 1 1s-0.4477 1-1 1h-5c-0.5523 0-1-0.4477-1-1z" fill="#19194B"/>
    <path d="m21.001 19c0-0.5522 0.4477-1 1-1h7c0.5523 0 1 0.4478 1 1 0 0.5523-0.4477 1-1 1h-7c-0.5523 0-1-0.4477-1-1z" fill="#19194B"/>
    <path d="m21 28c0-0.5523 0.4477-1 1-1h2c0.5522 0 1 0.4477 1 1 0 0.5522-0.4478 1-1 1h-2c-0.5523 0-1-0.4478-1-1z" fill="#00A0DF"/>
    <path d="m26 28c0-0.5523 0.4477-1 1-1h2c0.5522 0 1 0.4477 1 1 0 0.5522-0.4478 1-1 1h-2c-0.5523 0-1-0.4478-1-1z" fill="#00A0DF"/>
    <path d="m31 28c0-0.5523 0.4477-1 1-1h2c0.5522 0 1 0.4477 1 1 0 0.5522-0.4478 1-1 1h-2c-0.5523 0-1-0.4478-1-1z" fill="#00A0DF"/>
    <path d="m16.678 19.239c0 1.7888-1.4501 3.2389-3.2389 3.2389s-3.2389-1.4501-3.2389-3.2389 1.4501-3.2389 3.2389-3.2389 3.2389 1.4501 3.2389 3.2389zm-7.1927 5.7628c1.0488-1.0488 2.4708-1.6388 3.954-1.6405 1.4832 0.0017 2.9052 0.5917 3.954 1.6405s1.6387 2.4708 1.6405 3.954c0 0.0781-0.0311 0.153-0.0863 0.2082s-0.1301 0.0862-0.2082 0.0862h-10.6c-0.0781 0-0.15299-0.031-0.20821-0.0862s-0.08624-0.1301-0.08624-0.2082c0.00172-1.4832 0.59168-2.9052 1.6405-3.954z" clip-rule="evenodd" fill="#00A0DF" fill-rule="evenodd"/>
    <path d="m21 23c0-0.5523 0.4477-1 1-1h9c0.5522 0 1 0.4477 1 1s-0.4478 1-1 1h-9c-0.5523 0-1-0.4477-1-1z" fill="#19194B"/>
    <path d="m33 23c0-0.5523 0.4477-1 1-1h5c0.5523 0 1 0.4477 1 1s-0.4477 1-1 1h-5c-0.5523 0-1-0.4477-1-1z" fill="#19194B"/>
    <path d="m21.001 19c0-0.5522 0.4477-1 1-1h7c0.5523 0 1 0.4478 1 1 0 0.5523-0.4477 1-1 1h-7c-0.5523 0-1-0.4477-1-1z" fill="#19194B"/>
    <path d="m21 28c0-0.5523 0.4477-1 1-1h2c0.5522 0 1 0.4477 1 1 0 0.5522-0.4478 1-1 1h-2c-0.5523 0-1-0.4478-1-1z" fill="#00A0DF"/>
    <path d="m26 28c0-0.5523 0.4477-1 1-1h2c0.5522 0 1 0.4477 1 1 0 0.5522-0.4478 1-1 1h-2c-0.5523 0-1-0.4478-1-1z" fill="#00A0DF"/>
    <path d="m31 28c0-0.5523 0.4477-1 1-1h2c0.5522 0 1 0.4477 1 1 0 0.5522-0.4478 1-1 1h-2c-0.5523 0-1-0.4478-1-1z" fill="#00A0DF"/>
    <path d="m16.678 19.239c0 1.7888-1.4501 3.2389-3.2389 3.2389s-3.2389-1.4501-3.2389-3.2389 1.4501-3.2389 3.2389-3.2389 3.2389 1.4501 3.2389 3.2389zm-7.1927 5.7628c1.0488-1.0488 2.4708-1.6388 3.954-1.6405 1.4832 0.0017 2.9052 0.5917 3.954 1.6405s1.6387 2.4708 1.6405 3.954c0 0.0781-0.0311 0.153-0.0863 0.2082s-0.1301 0.0862-0.2082 0.0862h-10.6c-0.0781 0-0.15299-0.031-0.20821-0.0862s-0.08624-0.1301-0.08624-0.2082c0.00172-1.4832 0.59168-2.9052 1.6405-3.954z" clip-rule="evenodd" fill="#00A0DF" fill-rule="evenodd"/>
    <defs>
        <linearGradient id="a" x1="26.5" x2="20" y1="9" y2="38" gradientUnits="userSpaceOnUse">
            <stop stop-color="#EBECF0" offset="0"/>
            <stop stop-color="#EBECF0" stop-opacity="0" offset="1"/>
        </linearGradient>
    </defs>
</svg>

<svg class="icon" viewBox="0 0 48 48" fill="none" xmlns="http://www.w3.org/2000/svg">
    <rect width="48" height="48" fill="white"/>
    <rect x="4" y="10" width="40" height="27" rx="5" fill="#F4F5F7"/>
    <mask id="mask0" mask-type="alpha" maskUnits="userSpaceOnUse" x="4" y="10" width="40" height="27">
        <rect x="4" y="10" width="40" height="27" rx="4" fill="#F4F5F7"/>
    </mask>
    <g mask="url(#mask0)">
        <path d="M44 37V10L4 37H44Z" fill="url(#paint0_linear)"/>
    </g>
    <path d="M20.9998 22.9999C20.9998 22.4476 21.4475 21.9999 21.9998 21.9999H30.9998C31.552 21.9999 31.9998 22.4476 31.9998 22.9999C31.9998 23.5522 31.552 23.9999 30.9998 23.9999H21.9998C21.4475 23.9999 20.9998 23.5522 20.9998 22.9999Z" fill="#19194B"/>
    <path d="M33.0001 22.9999C33.0001 22.4476 33.4478 21.9999 34.0001 21.9999H39.0001C39.5524 21.9999 40.0001 22.4476 40.0001 22.9999C40.0001 23.5522 39.5524 23.9999 39.0001 23.9999H34.0001C33.4478 23.9999 33.0001 23.5522 33.0001 22.9999Z" fill="#19194B"/>
    <path d="M21.0006 18.9999C21.0006 18.4477 21.4483 17.9999 22.0006 17.9999H29.0006C29.5529 17.9999 30.0006 18.4477 30.0006 18.9999C30.0006 19.5522 29.5529 19.9999 29.0006 19.9999H22.0006C21.4483 19.9999 21.0006 19.5522 21.0006 18.9999Z" fill="#19194B"/>
    <path d="M20.9998 28.0001C20.9998 27.4478 21.4475 27.0001 21.9998 27.0001H23.9998C24.552 27.0001 24.9998 27.4478 24.9998 28.0001C24.9998 28.5523 24.552 29.0001 23.9998 29.0001H21.9998C21.4475 29.0001 20.9998 28.5523 20.9998 28.0001Z" fill="#00A0DF"/>
    <path d="M25.9998 28.0001C25.9998 27.4478 26.4475 27.0001 26.9998 27.0001H28.9998C29.552 27.0001 29.9998 27.4478 29.9998 28.0001C29.9998 28.5523 29.552 29.0001 28.9998 29.0001H26.9998C26.4475 29.0001 25.9998 28.5523 25.9998 28.0001Z" fill="#00A0DF"/>
    <path d="M30.9998 28.0001C30.9998 27.4478 31.4475 27.0001 31.9998 27.0001H33.9998C34.552 27.0001 34.9998 27.4478 34.9998 28.0001C34.9998 28.5523 34.552 29.0001 33.9998 29.0001H31.9998C31.4475 29.0001 30.9998 28.5523 30.9998 28.0001Z" fill="#00A0DF"/>
    <path fill-rule="evenodd" clip-rule="evenodd" d="M16.6781 19.2388C16.6781 21.0276 15.228 22.4777 13.4392 22.4777C11.6504 22.4777 10.2003 21.0276 10.2003 19.2388C10.2003 17.45 11.6504 15.9999 13.4392 15.9999C15.228 15.9999 16.6781 17.45 16.6781 19.2388ZM9.48544 25.0016C10.5342 23.9528 11.9562 23.3628 13.4394 23.3611C14.9226 23.3628 16.3446 23.9528 17.3934 25.0016C18.4422 26.0504 19.0321 27.4724 19.0339 28.9556C19.0339 29.0337 19.0028 29.1086 18.9476 29.1638C18.8924 29.219 18.8175 29.25 18.7394 29.25H8.13942C8.06132 29.25 7.98643 29.219 7.93121 29.1638C7.87599 29.1086 7.84497 29.0337 7.84497 28.9556C7.84669 27.4724 8.43665 26.0504 9.48544 25.0016Z" fill="#00A0DF"/>
    <path d="M20.9998 22.9999C20.9998 22.4476 21.4475 21.9999 21.9998 21.9999H30.9998C31.552 21.9999 31.9998 22.4476 31.9998 22.9999C31.9998 23.5522 31.552 23.9999 30.9998 23.9999H21.9998C21.4475 23.9999 20.9998 23.5522 20.9998 22.9999Z" fill="#19194B"/>
    <path d="M33.0001 22.9999C33.0001 22.4476 33.4478 21.9999 34.0001 21.9999H39.0001C39.5524 21.9999 40.0001 22.4476 40.0001 22.9999C40.0001 23.5522 39.5524 23.9999 39.0001 23.9999H34.0001C33.4478 23.9999 33.0001 23.5522 33.0001 22.9999Z" fill="#19194B"/>
    <path d="M21.0006 18.9999C21.0006 18.4477 21.4483 17.9999 22.0006 17.9999H29.0006C29.5529 17.9999 30.0006 18.4477 30.0006 18.9999C30.0006 19.5522 29.5529 19.9999 29.0006 19.9999H22.0006C21.4483 19.9999 21.0006 19.5522 21.0006 18.9999Z" fill="#19194B"/>
    <path d="M20.9998 28.0001C20.9998 27.4478 21.4475 27.0001 21.9998 27.0001H23.9998C24.552 27.0001 24.9998 27.4478 24.9998 28.0001C24.9998 28.5523 24.552 29.0001 23.9998 29.0001H21.9998C21.4475 29.0001 20.9998 28.5523 20.9998 28.0001Z" fill="#00A0DF"/>
    <path d="M25.9998 28.0001C25.9998 27.4478 26.4475 27.0001 26.9998 27.0001H28.9998C29.552 27.0001 29.9998 27.4478 29.9998 28.0001C29.9998 28.5523 29.552 29.0001 28.9998 29.0001H26.9998C26.4475 29.0001 25.9998 28.5523 25.9998 28.0001Z" fill="#00A0DF"/>
    <path d="M30.9998 28.0001C30.9998 27.4478 31.4475 27.0001 31.9998 27.0001H33.9998C34.552 27.0001 34.9998 27.4478 34.9998 28.0001C34.9998 28.5523 34.552 29.0001 33.9998 29.0001H31.9998C31.4475 29.0001 30.9998 28.5523 30.9998 28.0001Z" fill="#00A0DF"/>
    <path fill-rule="evenodd" clip-rule="evenodd" d="M16.6781 19.2388C16.6781 21.0276 15.228 22.4777 13.4392 22.4777C11.6504 22.4777 10.2003 21.0276 10.2003 19.2388C10.2003 17.45 11.6504 15.9999 13.4392 15.9999C15.228 15.9999 16.6781 17.45 16.6781 19.2388ZM9.48544 25.0016C10.5342 23.9528 11.9562 23.3628 13.4394 23.3611C14.9226 23.3628 16.3446 23.9528 17.3934 25.0016C18.4422 26.0504 19.0321 27.4724 19.0339 28.9556C19.0339 29.0337 19.0028 29.1086 18.9476 29.1638C18.8924 29.219 18.8175 29.25 18.7394 29.25H8.13942C8.06132 29.25 7.98643 29.219 7.93121 29.1638C7.87599 29.1086 7.84497 29.0337 7.84497 28.9556C7.84669 27.4724 8.43665 26.0504 9.48544 25.0016Z" fill="#00A0DF"/>
    <defs>
        <linearGradient id="paint0_linear" x1="26.5" y1="9" x2="20" y2="38" gradientUnits="userSpaceOnUse">
            <stop stop-color="#EBECF0"/>
            <stop offset="1" stop-color="#EBECF0" stop-opacity="0"/>
        </linearGradient>
    </defs>
</svg>
